X:394
T:Kitchen Girl
M:2/2
S:Colin Hume's website,  colinhume.com  - chords can also be printed below the stave.
Q:1/2=120
L:1/8
K:D
P:A
|: e2 | "A"[ca]4 "G"[Bg]4 | "A"efed c2cd | "A"e2ef gaba | "E"^g2e2 e4 |\
"A"[ca]4 "G"[Bg]4 | "A"efed c2ef | "G"g2d2 efed | "A"c2A2 A2 :|
P:B
|: B2 | "Am"=c2cA "G"B2BG | "Am"ABAG E2EG | "Am"A2B2 =c2d2 | "Em"e3g e4 |\
"Am"=c2cA "G"B2BG | "Am"ABAG E2AB | "Am"=cBAc "G"B2G2 | "Am"A3B A2 :|

